X: 39800
T: Theme Vannitaise
R: reel
M: 4/4
K: Eminor
|:E2 B2 B2 _BA|G2 E2 E4|A2 G2 F2 E2|1 D2 EF G2 FG:|2 DEFD E4||
|:EFGF EFGF|EFGA B2 B2|1 DEFE D2 _DE|F2 A2 G2 FG:|2 DEFG F2 _FA|G2 F2 E4||

